stadium-outline.svg

<svg fill="currentColor" viewBox="0 0 24 24"><path d="M7 5 3 7V3zm11-2v4l4-2zm-7-1v4l4-2zm2 16h-2v4c-5.1-.1-9-1.4-9-3v-9c0-1.7 4.5-3 10-3s10 1.3 10 3v9c0 1.6-4 2.9-9 3zm-8-8c1.4.5 3.8 1 7 1s5.6-.5 7-1c0-.2-2.8-1-7-1s-7 .9-7 1m15 1.8c-1.8.7-4.7 1.2-8 1.2s-6.2-.5-8-1.2v6.8c.6.4 2.4 1 5 1.3V16h6v3.9c2.6-.3 4.4-.9 5-1.3z"/></svg>

<svg  viewBox="0 0 24 24" fill="currentColor"><path  d="M7 5L3 7V3L7 5M18 3V7L22 5L18 3M11 2V6L15 4L11 2M13 18H11V22C5.9 21.9 2 20.6 2 19V10C2 8.3 6.5 7 12 7S22 8.3 22 10V19C22 20.6 18 21.9 13 22V18M5 10C6.4 10.5 8.8 11 12 11S17.6 10.5 19 10C19 9.8 16.2 9 12 9S5 9.9 5 10M20 11.8C18.2 12.5 15.3 13 12 13S5.8 12.5 4 11.8V18.6C4.6 19 6.4 19.6 9 19.9V16H15V19.9C17.6 19.6 19.4 19 20 18.6V11.8Z"/></svg>
